images/icon-services-5.svg

<svg width="48" height="48" viewBox="0 0 48 48" fill="none" xmlns="http://www.w3.org/2000/svg">
<path d="M38.3893 12.129C36.8726 9.64037 34.4966 8.09436 32.1886 8.09436C31.8563 8.09436 31.5637 8.3129 31.4694 8.63145C29.7602 14.4049 27.3441 15.5647 23.9996 15.5647C20.6552 15.5647 18.239 14.4049 16.5298 8.63145C16.4355 8.3129 16.1429 8.09436 15.8107 8.09436C13.5027 8.09436 11.1267 9.64037 9.60993 12.129C8.42487 14.0735 7.80853 16.4643 7.82758 19.0427C7.84955 22.0098 8.69055 25.1235 10.3272 28.2972C13.0735 33.6233 13.4458 38.2035 13.7175 41.5478C13.8658 43.3737 13.9831 44.816 14.4414 45.8845C14.998 47.1819 16.0237 47.8125 17.5771 47.8125C19.2661 47.8125 20.5692 46.6773 21.4503 44.4384C22.1466 42.6689 22.5226 40.4154 22.8542 38.4271C23.0533 37.2337 23.2414 36.1065 23.4706 35.2538C23.7102 34.3625 23.9174 34.0795 23.9996 33.9967C24.0818 34.0795 24.289 34.3625 24.5286 35.2538C24.7579 36.1065 24.9459 37.2337 25.1451 38.4271C25.4767 40.4154 25.8527 42.6689 26.549 44.4384C27.43 46.6773 28.7332 47.8125 30.4221 47.8125C31.9755 47.8125 33.0013 47.1819 33.5578 45.8845C34.0161 44.816 34.1334 43.3737 34.2817 41.5478C34.5535 38.2035 34.9257 33.6233 37.672 28.2972C39.3087 25.1235 40.1497 22.0098 40.1717 19.0427C40.1907 16.4643 39.5744 14.0735 38.3893 12.129ZM36.3388 27.6096C33.4549 33.2027 33.0687 37.9557 32.7867 41.4263C32.4649 45.3866 32.2083 46.3125 30.4221 46.3125C27.9812 46.3125 27.229 41.8034 26.6245 38.1803C26.3936 36.7952 26.1753 35.4869 25.8765 34.513C25.7053 33.9554 25.2507 32.4739 23.9996 32.4739C22.7486 32.4739 22.294 33.9554 22.1228 34.513C21.824 35.4869 21.6057 36.7952 21.3747 38.1803C20.7703 41.8034 20.0181 46.3125 17.5771 46.3125C15.791 46.3125 15.5344 45.3866 15.2126 41.4263C14.9306 37.9557 14.5443 33.2027 11.6604 27.6096C7.63596 19.8058 9.7815 14.7298 10.8908 12.9096C12.0116 11.0705 13.6492 9.85794 15.2685 9.63245C16.1426 12.3652 17.2287 14.2055 18.6636 15.3962C20.0354 16.5346 21.731 17.0647 23.9996 17.0647C26.2683 17.0647 27.9639 16.5346 29.3357 15.3962C30.7706 14.2055 31.8567 12.3652 32.7307 9.63245C34.35 9.85794 35.9876 11.0705 37.1084 12.9096C38.2178 14.7298 40.3633 19.8058 36.3388 27.6096Z" fill="#1E84B5"/>
<path d="M18.6634 7.51411C19.8795 8.52323 21.3509 9.05349 23.2495 9.1611V11.3556L22.6578 10.7639C22.3649 10.471 21.8901 10.471 21.5971 10.7639C21.3042 11.0568 21.3042 11.5317 21.5971 11.8246L23.4691 13.6967C23.7486 13.9867 24.2504 13.9867 24.5299 13.6967L26.4019 11.8246C26.6948 11.5317 26.6948 11.0568 26.4019 10.7639C26.109 10.4709 25.6342 10.471 25.3412 10.7639L24.7495 11.3556V9.1611C26.6481 9.05349 28.1195 8.52323 29.3356 7.51411C30.8689 6.24167 32.004 4.22746 32.9076 1.17519C32.9748 0.948318 32.9309 0.703049 32.7893 0.513489C32.6478 0.323929 32.425 0.21228 32.1884 0.21228C29.2912 0.21228 27.9074 1.00266 26.7956 1.63776C25.9379 2.12766 25.2604 2.51465 23.9995 2.51465C22.7386 2.51465 22.0611 2.12766 21.2034 1.63776C20.0916 1.00266 18.7078 0.21228 15.8106 0.21228C15.574 0.21228 15.3512 0.323929 15.2097 0.513489C15.0681 0.703049 15.0242 0.948318 15.0914 1.17519C15.995 4.22746 17.1301 6.24167 18.6634 7.51411ZM20.4594 2.94023C21.3842 3.46844 22.3404 4.01465 23.9995 4.01465C25.6586 4.01465 26.6148 3.46844 27.5396 2.94023C28.4372 2.42754 29.3607 1.90001 31.1494 1.75261C29.4626 6.65942 27.1404 7.68266 23.9995 7.68266C20.8586 7.68266 18.5364 6.65942 16.8496 1.75261C18.6383 1.90001 19.5619 2.42754 20.4594 2.94023Z" fill="#0E384C"/>
</svg>

<svg xmlns="http://www.w3.org/2000/svg" width="48" height="48" fill="none" viewBox="0 0 48 48"><path fill="#1e84b5" d="M38.39 12.129c-1.517-2.489-3.893-4.035-6.201-4.035a.75.75 0 0 0-.72.537c-1.709 5.774-4.125 6.934-7.47 6.934s-5.76-1.16-7.47-6.934a.75.75 0 0 0-.718-.537c-2.308 0-4.684 1.546-6.201 4.035-1.185 1.944-1.801 4.335-1.782 6.914.022 2.967.863 6.08 2.5 9.254 2.746 5.326 3.118 9.906 3.39 13.25.148 1.827.265 3.269.723 4.338.557 1.297 1.583 1.928 3.136 1.928 1.69 0 2.992-1.136 3.873-3.375.697-1.77 1.073-4.023 1.404-6.01.2-1.194.387-2.322.617-3.174.24-.892.446-1.174.529-1.257.082.083.289.365.529 1.257.229.852.417 1.98.616 3.173.332 1.988.708 4.242 1.404 6.011.881 2.24 2.184 3.374 3.873 3.374 1.553 0 2.58-.63 3.136-1.927.458-1.069.575-2.511.724-4.337.272-3.345.644-7.925 3.39-13.25 1.637-3.174 2.478-6.288 2.5-9.255.019-2.579-.598-4.97-1.783-6.914m-2.051 15.48c-2.884 5.594-3.27 10.347-3.552 13.817-.322 3.96-.579 4.886-2.365 4.886-2.44 0-3.193-4.509-3.797-8.132-.231-1.385-.45-2.693-.748-3.667-.172-.558-.626-2.04-1.877-2.04s-1.706 1.482-1.877 2.04c-.299.974-.517 2.282-.748 3.667-.605 3.623-1.357 8.133-3.798 8.133-1.786 0-2.043-.926-2.364-4.887-.282-3.47-.669-8.223-3.553-13.816-4.024-7.804-1.879-12.88-.77-14.7 1.122-1.84 2.76-3.052 4.378-3.278.875 2.733 1.96 4.574 3.396 5.764 1.371 1.139 3.067 1.669 5.336 1.669 2.268 0 3.964-.53 5.336-1.669 1.435-1.19 2.52-3.03 3.395-5.764 1.619.226 3.257 1.438 4.377 3.278 1.11 1.82 3.255 6.896-.77 14.7"/><path fill="#0e384c" d="M18.663 7.514c1.217 1.01 2.688 1.54 4.587 1.647v2.195l-.592-.592a.75.75 0 0 0-1.06 1.06l1.871 1.873c.28.29.781.29 1.06 0l1.873-1.872a.75.75 0 0 0-1.06-1.061l-.592.592V9.16c1.898-.108 3.37-.638 4.586-1.647 1.533-1.272 2.668-3.287 3.572-6.339a.75.75 0 0 0-.72-.963c-2.897 0-4.28.79-5.392 1.426-.858.49-1.536.877-2.796.877-1.261 0-1.939-.387-2.797-.877-1.111-.635-2.495-1.426-5.392-1.426a.75.75 0 0 0-.72.963c.904 3.052 2.04 5.067 3.572 6.34M20.46 2.94c.925.528 1.881 1.075 3.54 1.075s2.616-.547 3.54-1.075c.898-.512 1.822-1.04 3.61-1.187-1.686 4.906-4.009 5.93-7.15 5.93s-5.463-1.024-7.15-5.93c1.79.147 2.713.675 3.61 1.187"/></svg>
